X: 19217
T: Isle Of France
R: polka
M: 2/4
K: Dmajor
M:3/2
L:1/8
DE|F2 B2 F4 B,3 C|D2 D2 D6 A2|B2 c2 d4 c3 B|
AB c2 B6 A2|B2 e2 d4 c3 B|A2 c2 B6 DE|F2 B2 F4 B,3 C|
D2 D2 D6|

